X: 43257
T: Woman Of The House, The
R: reel
M: 4/4
K: Gmajor
|:DBBA B3A|GB B2 (3efg dB|(3ABA GB A2(3Bcd|eB B2 eBdB|
DBBD B3A|GB B2 e2 dB|GABG A2 GA|(3BAG AG EG G2:|
|:f3d ed (3Bcd|edfd ed (3Bcd|f3d ed (3Bcd|eaag a3g|
f3d ed (3Bcd|edfd edBA|GABG A2 GA|(3BAG AG EG G2:|
|:d2 cd B3A|GB B2 eBdB|A2 GB A2(3Bcd|eB B2 eBdB|
DBBD B3A|GB B2 e2 dB|GABG A2 GA|(3BAG AG EG G2:|
|:fd (3Bcd ed (3Bcd|edfd ed (3Bcd|fd (3Bcd ed (3Bcd|eaag a3g|
f3d ed (3Bcd|edfd edBA|GABG A2 GA|(3BAG AG EG G2:|
|:D2 BA B4|GB B2 eBdB|A2 GB A2 (3Bcd|eB B2 DB B2|
d2 cd B3A|GB B2 egdB|GABG A2 GA|(3BAG AG EG G2:|
|:(3Bcd|f3d edfd|(3Bcd edfd (3Bcd|f3d ed (3Bcd|(a4 a)3g|
f3d ed (3Bcd|edfd edBA|GABG A2 GA|(3BAG AG EG G2:|

